!!!SOCIAL_FUNCTION:	begging dance songs
!!!PDT:	1913
!!!OTL: No_116_Maple_Sugar.krn
!!!REG: Great_Lakes
!!!LANG: Non-Tone
!!!LING_GROUP: Algonquin
**kern	**kern
*staff2	*staff1
=1-	=1-
*clefF4	*clefF4
*k[f#]	*k[f#]
*M2/4	*M2/4
12GG^/	16d\LK
.	8.d\J
12r	.
12GG/	.
12GG^/	4d\
12r	.
12GG/	.
=2	=2
2r	8e\L
.	8d\J
.	4d\
=3	=3
2r	8.d\L
.	16c\Jk
.	16d\LK
.	8.A\J
=4	=4
2r	16d\LK
.	8.d\J
.	4d\
=5	=5
2r	8e\L
.	8d\J
.	4d\
=6	=6
2r	8.d\L
.	16c\Jk
.	16d\LK
.	8.A\J
=7||	=7||
*M3/4	*M3/4
2.r	16d\LK
.	8.G\J
.	8.G\L
.	16E\Jk
.	4D\
=8	=8
2.r	16G\LK
.	8.G\J
.	4G\
.	8A\L
.	8G\J
=9||	=9||
*M2/4	*M2/4
2r	16A\LK
.	8.G\J
.	8.G\L
.	16E\Jk
=10	=10
2r	4D\
.	8E\L
.	8E\J
=11	=11
2r	8.D\L
.	16D\Jk
.	[4D\
=12||	=12||
*M3/4	*M3/4
2.r	2.D\]
=13||	=13||
*M2/4	*M2/4
2r	8.A\L
.	16A\Jk
.	8.A\L
.	16A\Jk
=14	=14
2r	8.A\L
.	16A\Jk
.	8.A\L
.	16A\Jk
=15	=15
2r	8.d\L
.	16A\Jk
.	4G\
=16||	=16||
*M3/4	*M3/4
2.r	16A\LK
.	8.G\J
.	8.G\L
.	16E\Jk
.	4D\
=17	=17
2.r	16G\LK
.	8.G\J
.	4G\
.	8A\L
.	8G\J
=18||	=18||
*M2/4	*M2/4
2r	16A\LK
.	8.G\J
.	8.G\L
.	16E\Jk
=19	=19
2r	4D\
.	8E\L
.	8E\J
=20	=20
2r	8.D\L
.	16D\Jk
.	[4D\
=21	=21
2r	2D\]
==	==
*-	*-
